projects/plugins/jetpack/images/products/product-jetpack-backup.svg

<svg fill="none" height="128" viewBox="0 0 128 128" width="128" xmlns="http://www.w3.org/2000/svg"><rect fill="#2c3338" height="103.619" rx="12.1905" width="103.619" x="12.1904" y="12.1905"/><path d="m42.8145 52.6692c-.0261-.1824-.0391-.3517-.0391-.508 0-.547.1302-1.0549.3907-1.5238.3386-.6251.8466-1.094 1.5238-1.4066l17.9732-6.4078c.3125-.1042.6381-.1563.9768-.1563l.9768.1563 17.9731 6.4078c.6772.3126 1.1852.7815 1.5238 1.4066.2605.4949.3907 1.0029.3907 1.5238 0 .1563-.013.3256-.039.508 0 .026-.0131.1042-.0391.2344-.2084.9377-.4428 1.8885-.7033 2.8523-.2605.9377-.7294 2.5396-1.4066 4.8058-.6773 2.2662-1.5108 4.5063-2.5006 6.7204-.9638 2.2141-2.1099 4.6105-3.4384 7.1893-1.3024 2.5527-2.9043 5.0663-4.8058 7.5409-1.8755 2.4745-3.8812 4.6756-6.0171 6.6031-.521.521-1.1722.7815-1.9536.7815-.7294 0-1.3545-.2605-1.8755-.7815-2.6569-2.3703-5.1184-5.2226-7.3846-8.5567-2.2662-3.3342-4.0635-6.4339-5.3919-9.2992-1.3285-2.8653-2.5006-5.7696-3.5165-8.7131-.9898-2.9694-1.6541-5.1314-1.9927-6.4859-.3126-1.3545-.5209-2.3183-.6251-2.8913zm1.7191.2344c.0521.3386.1563.8596.3126 1.5629.1823.6772.5079 1.8364.9768 3.4774.4689 1.615.9898 3.282 1.5629 5.0012.5991 1.6931 1.3936 3.6598 2.3834 5.8999 1.0159 2.2141 2.0969 4.337 3.243 6.3687 1.1721 2.0318 2.5787 4.1156 4.2197 6.2516 1.6411 2.1359 3.3733 4.0244 5.1966 5.6654.3647.2605.7684.3907 1.2113.3907.4428 0 .8205-.1302 1.1331-.3907 2.5266-2.2662 4.8579-4.9882 6.9938-8.1661 2.162-3.1778 3.8552-6.1082 5.0794-8.7912 1.2503-2.709 2.3574-5.4961 3.3211-8.3614.9638-2.8913 1.589-4.9361 1.8755-6.1343.3126-1.1982.521-2.1229.6251-2.7741.0261-.1302.0391-.2605.0391-.3907.0261-.2866-.0391-.5731-.1953-.8596-.2084-.4168-.521-.7033-.9378-.8596l-17.348-6.2515c-.0781 0-.1823-.013-.3125-.0391-.1303-.026-.2345-.0391-.3126-.0391l-.547.0782-17.348 6.2515c-.4168.1563-.7294.4428-.9377.8596-.1563.2865-.2475.5861-.2735.8986 0 .1303.013.2475.039.3517zm6.5641 1.5629h6.5641l5.939 15.2381 6.0171-15.2381h6.5641c-.1563.3907-.3647.9638-.6252 1.7191-.2604.7294-.5079 1.3936-.7423 1.9927-.2345.5991-.4819 1.1592-.7424 1.6801-.0521.1042-.1433.1824-.2735.2344-.1042.0521-.2344.1042-.3907.1563-.1563.0261-.2735.0521-.3517.0782-.1302.0781-.2474.1693-.3516.2735-.0782.0781-.1563.1953-.2345.3516-.0521.1303-.1042.2345-.1562.3126-.0261.0782-.0782.2214-.1563.4298-.0521.1823-.0912.2996-.1173.3516l-.9377 2.3444c-2.8132 7.1111-4.4802 11.3309-5.0012 12.6593h-4.9231l-2.1099-5.1575c-.2083-.6251-.573-1.5629-1.094-2.8132-.2084-.6251-.573-1.5629-1.094-2.8132l-1.1722-2.8913c-.1042-.2344-.2214-.547-.3516-.9377-.1303-.3908-.2735-.7424-.4298-1.055-.1302-.3125-.3126-.6121-.547-.8986-.1042-.1042-.2214-.1693-.3517-.1954-.1302-.0521-.2735-.0781-.4298-.0781-.1562 0-.2604-.0131-.3125-.0391-.6512-1.5889-1.3806-3.4904-2.1881-5.7045z" fill="#fff"/></svg>

<svg width="128" height="128" viewBox="0 0 128 128" fill="none" xmlns="http://www.w3.org/2000/svg">
<rect x="12.1904" y="12.1905" width="103.619" height="103.619" rx="12.1905" fill="#2C3338"/>
<path d="M42.8145 52.6692C42.7884 52.4868 42.7754 52.3175 42.7754 52.1612C42.7754 51.6142 42.9056 51.1063 43.1661 50.6374C43.5047 50.0123 44.0127 49.5434 44.6899 49.2308L62.6631 42.823C62.9756 42.7188 63.3012 42.6667 63.6399 42.6667L64.6167 42.823L82.5898 49.2308C83.267 49.5434 83.775 50.0123 84.1136 50.6374C84.3741 51.1323 84.5043 51.6403 84.5043 52.1612C84.5043 52.3175 84.4913 52.4868 84.4653 52.6692C84.4653 52.6952 84.4522 52.7734 84.4262 52.9036C84.2178 53.8413 83.9834 54.7921 83.7229 55.7559C83.4624 56.6936 82.9935 58.2955 82.3163 60.5617C81.639 62.8279 80.8055 65.068 79.8157 67.2821C78.8519 69.4962 77.7058 71.8926 76.3773 74.4714C75.0749 77.0241 73.473 79.5377 71.5715 82.0123C69.696 84.4868 67.6903 86.6879 65.5544 88.6154C65.0334 89.1364 64.3822 89.3969 63.6008 89.3969C62.8714 89.3969 62.2463 89.1364 61.7253 88.6154C59.0684 86.2451 56.6069 83.3928 54.3407 80.0587C52.0745 76.7245 50.2772 73.6248 48.9488 70.7595C47.6203 67.8942 46.4482 64.9899 45.4323 62.0464C44.4425 59.077 43.7782 56.915 43.4396 55.5605C43.127 54.206 42.9187 53.2422 42.8145 52.6692ZM44.5336 52.9036C44.5857 53.2422 44.6899 53.7632 44.8462 54.4665C45.0285 55.1437 45.3541 56.3029 45.823 57.9439C46.2919 59.5589 46.8128 61.2259 47.3859 62.9451C47.985 64.6382 48.7795 66.6049 49.7693 68.845C50.7852 71.0591 51.8662 73.182 53.0123 75.2137C54.1844 77.2455 55.591 79.3293 57.232 81.4653C58.8731 83.6012 60.6053 85.4897 62.4286 87.1307C62.7933 87.3912 63.197 87.5214 63.6399 87.5214C64.0827 87.5214 64.4604 87.3912 64.773 87.1307C67.2996 84.8645 69.6309 82.1425 71.7668 78.9646C73.9288 75.7868 75.622 72.8564 76.8462 70.1734C78.0965 67.4644 79.2036 64.6773 80.1673 61.812C81.1311 58.9207 81.7563 56.8759 82.0428 55.6777C82.3554 54.4795 82.5638 53.5548 82.6679 52.9036C82.694 52.7734 82.707 52.6431 82.707 52.5129C82.7331 52.2263 82.6679 51.9398 82.5117 51.6533C82.3033 51.2365 81.9907 50.95 81.5739 50.7937L64.2259 44.5422C64.1478 44.5422 64.0436 44.5292 63.9134 44.5031C63.7831 44.4771 63.6789 44.464 63.6008 44.464L63.0538 44.5422L45.7058 50.7937C45.289 50.95 44.9764 51.2365 44.7681 51.6533C44.6118 51.9398 44.5206 52.2394 44.4946 52.5519C44.4946 52.6822 44.5076 52.7994 44.5336 52.9036ZM51.0977 54.4665H57.6618L63.6008 69.7046L69.6179 54.4665H76.182C76.0257 54.8572 75.8173 55.4303 75.5568 56.1856C75.2964 56.915 75.0489 57.5792 74.8145 58.1783C74.58 58.7774 74.3326 59.3375 74.0721 59.8584C74.02 59.9626 73.9288 60.0408 73.7986 60.0928C73.6944 60.1449 73.5642 60.197 73.4079 60.2491C73.2516 60.2752 73.1344 60.3012 73.0562 60.3273C72.926 60.4054 72.8088 60.4966 72.7046 60.6008C72.6264 60.6789 72.5483 60.7961 72.4701 60.9524C72.418 61.0827 72.3659 61.1869 72.3139 61.265C72.2878 61.3432 72.2357 61.4864 72.1576 61.6948C72.1055 61.8771 72.0664 61.9944 72.0403 62.0464L71.1026 64.3908C68.2894 71.5019 66.6224 75.7217 66.1014 77.0501H61.1783L59.0684 71.8926C58.8601 71.2675 58.4954 70.3297 57.9744 69.0794C57.766 68.4543 57.4014 67.5165 56.8804 66.2662L55.7082 63.3749C55.604 63.1405 55.4868 62.8279 55.3566 62.4372C55.2263 62.0464 55.0831 61.6948 54.9268 61.3822C54.7966 61.0697 54.6142 60.7701 54.3798 60.4836C54.2756 60.3794 54.1584 60.3143 54.0281 60.2882C53.8979 60.2361 53.7546 60.2101 53.5983 60.2101C53.4421 60.2101 53.3379 60.197 53.2858 60.171C52.6346 58.5821 51.9052 56.6806 51.0977 54.4665Z" fill="white"/>
</svg>
